svgs/duotone/circle-envelope.svg

<svg xmlns="http://www.w3.org/2000/svg" viewBox="0 0 512 512"><!--! Font Awesome Pro 6.6.0 by @fontawesome - https://fontawesome.com License - https://fontawesome.com/license (Commercial License) Copyright 2024 Fonticons, Inc. --><path class="fa-secondary" style="fill:var(--fa-secondary-color,inherit);opacity:var(--fa-secondary-opacity,.4);" d="M0 256a256 256 0 1 0 512 0A256 256 0 1 0 0 256zm128-64c0-17.7 14.3-32 32-32l192 0c17.7 0 32 14.3 32 32l0 9.3L264.7 255.6c-2.7 1.2-5.7 1.9-8.7 1.9s-5.9-.6-8.7-1.9L128 201.3l0-9.3zm0 44.5l106.1 48.3c6.9 3.1 14.4 4.8 21.9 4.8s15-1.6 21.9-4.8L384 236.5l0 83.5c0 17.7-14.3 32-32 32l-192 0c-17.7 0-32-14.3-32-32l0-83.5z"/><path class="fa-primary" style="fill:var(--fa-primary-color,inherit);opacity:var(--fa-primary-opacity,1);" d="M160 160c-17.7 0-32 14.3-32 32l0 9.3 119.3 54.3c2.7 1.2 5.7 1.9 8.7 1.9s5.9-.6 8.7-1.9L384 201.3l0-9.3c0-17.7-14.3-32-32-32l-192 0zm224 76.5L277.9 284.7c-6.9 3.1-14.3 4.8-21.9 4.8s-15-1.6-21.9-4.8L128 236.5l0 83.5c0 17.7 14.3 32 32 32l192 0c17.7 0 32-14.3 32-32l0-83.5z"/></svg>

<svg xmlns="http://www.w3.org/2000/svg" viewBox="0 0 512 512"><!--! Font Awesome Pro 6.4.2 by @fontawesome - https://fontawesome.com License - https://fontawesome.com/license (Commercial License) Copyright 2023 Fonticons, Inc. --><path class="fa-primary" style="fill:var(--fa-primary-color,inherit);opacity:var(--fa-primary-opacity,1);" d="M160 160c-17.7 0-32 14.3-32 32v9.3l119.3 54.3c2.7 1.2 5.7 1.9 8.7 1.9s5.9-.6 8.7-1.9L384 201.3V192c0-17.7-14.3-32-32-32H160zm224 76.5L277.9 284.7c-6.9 3.1-14.3 4.8-21.9 4.8s-15-1.6-21.9-4.8L128 236.5V320c0 17.7 14.3 32 32 32H352c17.7 0 32-14.3 32-32V236.5z"/><path class="fa-secondary" style="fill:var(--fa-secondary-color,inherit);opacity:var(--fa-secondary-opacity,.4);" d="M256 512A256 256 0 1 0 256 0a256 256 0 1 0 0 512zM128 192c0-17.7 14.3-32 32-32H352c17.7 0 32 14.3 32 32v9.3L264.7 255.6c-2.7 1.2-5.7 1.9-8.7 1.9s-5.9-.6-8.7-1.9L128 201.3V192zm149.9 92.7L384 236.5V320c0 17.7-14.3 32-32 32H160c-17.7 0-32-14.3-32-32V236.5l106.1 48.3c6.9 3.1 14.3 4.8 21.9 4.8s15-1.6 21.9-4.8z"/></svg>
